X: 5550
T: Burren, The
R: reel
M: 4/4
K: Dmajor
DF|A3B AF (3FFF|AFAd fefa|afef db (3BBB|dBAF EFDF|
A3B AF (3FFF|AFAd fefa|afef db (3BBB|Agfe d2:|
|:de|fded BAFA|dcde abaf|gefd edBA|dBAF EFDF|
A3B AF (3FFF|AFAd fefa|afef db (3BBB|Agfe d2:|

